cutejava-front/src/assets/icons/svg/finance.svg

<svg class="icon" viewBox="0 0 1025 1024" xmlns="http://www.w3.org/2000/svg" width="200.195" height="200"><defs><style/></defs><path d="M991.942 496.659c-18.442-12.831-44.764-23.836-78.238-32.711-53.909-14.293-126.992-22.827-195.496-22.827-28.662 0-52.752 1.57-68.171 4.432V188.218c0-28.622-34.407-57.946-94.397-80.453C493.653 84.508 414.304 71.7 332.21 71.7c-88.272 0-172.086 12.806-236.002 36.06C35.067 130.004 0 159.33 0 188.219V749.44c0 35.177 33.28 64.869 96.243 85.868 59.268 19.765 143.069 30.652 235.967 30.652h42.481c25.36 31.263 76.902 54.854 153.215 70.125 59.752 11.956 123.835 16.216 163.883 16.216 39.674 0 116.76-2.341 187.285-18.021 76.932-17.105 125.643-45.192 144.778-83.483l.148-.295V547.976c.001-19.252-10.785-36.518-32.058-51.317zM434.289 766.078c57.478 28.082 144.092 42.32 257.501 42.32 119.346 0 215.735-15.019 271.884-42.322v69.706c0 26.565-111.659 56.165-271.884 56.165-147.378 0-257.501-29.652-257.501-56.165v-69.704zm257.501-18.035c-147.378 0-257.501-29.652-257.501-56.165v-69.703c57.477 28.081 144.091 42.319 257.501 42.319 119.346 0 215.736-15.019 271.884-42.321v69.705c.001 26.565-111.658 56.165-271.884 56.165zm0-143.902c-168.458 0-257.501-19.422-257.501-56.165 0-12.612 26.397-23.621 74.328-30.998 45.802-7.05 109.143-10.777 183.173-10.777 167.704 0 271.884 16.007 271.884 41.775.001 37.268-91.474 56.165-271.884 56.165zm-359.58-86.343c-94.374 0-163.131-10.128-195.717-16.165-55.883-10.354-76.168-20.988-76.168-25.609v-84.091c56.173 27.605 156.388 56.706 271.885 56.706 105.075 0 203.804-30.313 257.501-56.706v54.1c-99.664 14.376-185.762 43.127-214.926 71.765H332.21zm0-129.512c-91.917 0-162.016-14.623-195.621-23.34-52.026-13.495-76.264-27.565-76.264-32.825V248.03c56.173 27.605 156.388 56.706 271.885 56.706 105.075 0 203.804-30.313 257.501-56.706v84.091c.001 26.513-110.121 56.165-257.501 56.165zm0-143.902c-160.226 0-271.885-29.6-271.885-56.165s111.659-56.165 271.885-56.165c147.379 0 257.501 29.652 257.501 56.165S479.59 244.384 332.21 244.384zm41.754 333.769v83.548h-41.753c-160.226 0-271.885-29.599-271.885-56.164v-69.706c56.151 27.302 152.54 42.322 271.885 42.322h41.753zm0 143.902v83.549h-41.753c-160.226 0-271.885-29.6-271.885-56.165v-69.706c56.15 27.303 152.54 42.322 271.884 42.322h41.754z"/></svg>

<?xml version="1.0" standalone="no"?><!DOCTYPE svg PUBLIC "-//W3C//DTD SVG 1.1//EN" "http://www.w3.org/Graphics/SVG/1.1/DTD/svg11.dtd"><svg t="1608289437644" class="icon" viewBox="0 0 1025 1024" version="1.1" xmlns="http://www.w3.org/2000/svg" p-id="11473" xmlns:xlink="http://www.w3.org/1999/xlink" width="200.1953125" height="200"><defs><style type="text/css"></style></defs><path d="M991.942 496.659c-18.442-12.831-44.764-23.836-78.238-32.711-53.909-14.293-126.992-22.827-195.496-22.827-28.662 0-52.752 1.57-68.171 4.432L650.037 188.218c0-28.622-34.407-57.946-94.397-80.453C493.653 84.508 414.304 71.7 332.21 71.7c-88.272 0-172.086 12.806-236.002 36.06-61.141 22.244-96.208 51.57-96.208 80.459l0 561.221c0 35.177 33.28 64.869 96.243 85.868 59.268 19.765 143.069 30.652 235.967 30.652l42.481 0c25.36 31.263 76.902 54.854 153.215 70.125 59.752 11.956 123.835 16.216 163.883 16.216 39.674 0 116.76-2.341 187.285-18.021 76.932-17.105 125.643-45.192 144.778-83.483l0.148-0.295L1024 547.976C1024.001 528.724 1013.215 511.458 991.942 496.659zM434.289 766.078c57.478 28.082 144.092 42.32 257.501 42.32 119.346 0 215.735-15.019 271.884-42.322l0 69.706c0 26.565-111.659 56.165-271.884 56.165-147.378 0-257.501-29.652-257.501-56.165L434.289 766.078zM691.79 748.043c-147.378 0-257.501-29.652-257.501-56.165L434.289 622.175c57.477 28.081 144.091 42.319 257.501 42.319 119.346 0 215.736-15.019 271.884-42.321l0 69.705C963.675 718.443 852.016 748.043 691.79 748.043zM691.79 604.141c-168.458 0-257.501-19.422-257.501-56.165 0-12.612 26.397-23.621 74.328-30.998 45.802-7.05 109.143-10.777 183.173-10.777 167.704 0 271.884 16.007 271.884 41.775C963.675 585.244 872.2 604.141 691.79 604.141zM332.21 517.798c-94.374 0-163.131-10.128-195.717-16.165-55.883-10.354-76.168-20.988-76.168-25.609l0-84.091c56.173 27.605 156.388 56.706 271.885 56.706 105.075 0 203.804-30.313 257.501-56.706l0 54.1c-99.664 14.376-185.762 43.127-214.926 71.765L332.21 517.798zM332.21 388.286c-91.917 0-162.016-14.623-195.621-23.34-52.026-13.495-76.264-27.565-76.264-32.825l0-84.091c56.173 27.605 156.388 56.706 271.885 56.706 105.075 0 203.804-30.313 257.501-56.706l0 84.091C589.712 358.634 479.59 388.286 332.21 388.286zM332.21 244.384c-160.226 0-271.885-29.6-271.885-56.165s111.659-56.165 271.885-56.165c147.379 0 257.501 29.652 257.501 56.165S479.59 244.384 332.21 244.384zM373.964 578.153l0 83.548-41.753 0c-160.226 0-271.885-29.599-271.885-56.164l0-69.706c56.151 27.302 152.54 42.322 271.885 42.322L373.964 578.153zM373.964 722.055l0 83.549-41.753 0c-160.226 0-271.885-29.6-271.885-56.165l0-69.706C116.476 707.036 212.866 722.055 332.21 722.055L373.964 722.055z" p-id="11474"></path></svg>
